icons/pinterest.svg

<svg width="24" xmlns="http://www.w3.org/2000/svg" height="24" id="screenshot-bfd96ead-884f-806b-8006-9b0375d4bb1a" viewBox="0 0 24 24" xmlns:xlink="http://www.w3.org/1999/xlink" fill="none" version="1.1"><g id="shape-bfd96ead-884f-806b-8006-9b0375d4bb1a"><g class="frame-container-wrapper"><g class="frame-container-blur"><g class="frame-container-shadows"><g fill="none"><g class="fills" id="fills-bfd96ead-884f-806b-8006-9b0375d4bb1a"><rect rx="0" ry="0" x="0" y="0" width="24" height="24" transform="matrix(1, 0, 0, 1, 0, 0)" class="frame-background"/></g><g class="frame-children"><g id="shape-bfd96ead-884f-806b-8006-9b0287a48710"><g class="fills" id="fills-bfd96ead-884f-806b-8006-9b0287a48710"><rect rx="4" ry="4" x="0" y="0" transform="matrix(1, 0, 0, 1, 0, 0)" width="24" height="24" style="fill: rgb(0, 0, 0); fill-opacity: 1;"/></g></g><g id="shape-bfd96ead-884f-806b-8006-9affaff93eb8"><g class="fills" id="fills-bfd96ead-884f-806b-8006-9affaff93eb8"><path d="M7.823534965515137,13.095108032226562C8.027148246765137,13.170669555664062,8.209765434265137,13.098159790039062,8.269579887390137,12.894302368164062C8.310351371765137,12.753677368164062,8.407763481140137,12.397232055664062,8.451220512390137,12.248550415039062C8.511034965515137,12.046768188476562,8.487597465515137,11.976699829101562,8.322802543640137,11.800796508789062C7.964648246765137,11.418960571289062,7.735400199890137,10.923843383789062,7.735400199890137,10.223403930664062C7.735400199890137,8.191421508789062,9.418749809265137,6.3719635009765625,12.119189262390137,6.3719635009765625C14.510302543640137,6.3719635009765625,15.823779106140137,7.6917877197265625,15.823779106140137,9.453994750976562C15.823779106140137,11.772354125976562,14.687304496765137,13.729385375976562,13.001025199890137,13.729385375976562C12.069140434265137,13.729385375976562,11.372118949890137,13.033950805664062,11.595263481140137,12.181045532226562C11.863329887390137,11.162002563476562,12.381396293640137,10.062393188476562,12.381396293640137,9.326797485351562C12.381396293640137,8.668594360351562,11.990527153015137,8.119766235351562,11.180468559265137,8.119766235351562C10.228075981140137,8.119766235351562,9.463183403015137,9.009536743164062,9.463183403015137,10.201065063476562C9.463183403015137,10.960098266601562,9.747607231140137,11.473648071289062,9.747607231140137,11.473648071289062C9.747607231140137,11.473648071289062,8.773241996765137,15.202774047851562,8.602343559265137,15.855484008789062C8.261767387390137,17.156021118164062,8.551318168640137,18.750625610351562,8.575488090515137,18.911636352539062C8.590624809265137,19.007095336914062,8.725878715515137,19.029434204101562,8.787158012390137,18.957901000976562C8.875048637390137,18.853897094726562,10.009570121765137,17.589248657226562,10.394579887390137,16.325698852539062C10.503954887390137,15.968276977539062,11.021044731140137,14.115737915039062,11.021044731140137,14.115737915039062C11.330126762390137,14.648574829101562,12.234667778015137,15.117813110351562,13.195605278015137,15.117813110351562C16.058399200439453,15.117813110351562,18.000049591064453,12.761123657226562,18.000049591064453,9.606582641601562C18.000049591064453,7.2214508056640625,15.763964653015137,5.0000152587890625,12.363574028015137,5.0000152587890625C8.133105278015137,5.0000152587890625,6.000048637390137,7.7389068603515625,6.000048637390137,10.023208618164062C6.000048637390137,11.406509399414062,6.579882621765137,12.637344360351562,7.823534965515137,13.095108032226562" style="fill-rule: nonzero; stroke: none; stroke-width: 0.133333; fill: rgb(255, 255, 255); fill-opacity: 1;"/></g></g></g></g></g></g></g></g></svg>

<svg fill="none" viewBox="0 0 24 24"><g class="frame-container-wrapper"><g class="frame-container-blur"><g class="frame-container-shadows"><g class="fills"><rect width="24" height="24" class="frame-background" rx="0" ry="0"/></g><g class="frame-children"><rect width="24" height="24" fill="#000" class="fills" rx="4" ry="4"/><path fill="#fff" d="M7.8235 13.0951c.2036.0756.3863.003.446-.2008.0409-.1406.1383-.497.1817-.6457.0598-.2018.0364-.2719-.1284-.4478-.3582-.3818-.5874-.877-.5874-1.5774 0-2.032 1.6833-3.8514 4.3838-3.8514 2.3911 0 3.7046 1.3198 3.7046 3.082 0 2.3184-1.1365 4.2754-2.8228 4.2754-.9319 0-1.6289-.6954-1.4057-1.5484.268-1.019.7861-2.1186.7861-2.8542 0-.6582-.3909-1.207-1.201-1.207-.9523 0-1.7172.8897-1.7172 2.0813 0 .759.2844 1.2725.2844 1.2725s-.9744 3.7292-1.1453 4.3819c-.3405 1.3005-.051 2.8951-.0268 3.0561.0151.0955.1504.1178.2117.0463.0878-.104 1.2224-1.3687 1.6074-2.6322.1094-.3574.6264-2.21.6264-2.21.3091.5329 1.2137 1.0021 2.1746 1.0021 2.8628 0 4.8044-2.3567 4.8044-5.5112C18 7.2215 15.764 5 12.3636 5 8.133 5 6 7.739 6 10.0232c0 1.3833.5799 2.6141 1.8235 3.072" class="fills"/></g></g></g></g></svg>
